X: 17741
T: Homeward Bound
R: reel
M: 4/4
K: Dmajor
A,|D/D/D DE FEDF|A/A/A AF ABde|faed B2 dB|AFEF DB,A,B,|
D/D/D DE FEDF|A/A/A AF ABde|faed B2 dB|AFEF D/D/D D:|
g|fdfg afdf|e/e/e ed efg2|fdfg afdf|edef d/d/d dg|
fdfg afdf|e/e/e ed efg2|faed B2 dB|AFEF D/D/D D:|

